X: 682
T: Eviç Sazsemâîsi
C: Sedat Öztoprak
O: Turkey
F: http://compmusic.upf.edu/node/140
N: evic--sazsemaisi--aksaksemai----sedat_oztoprak
N: makam= evic
N: form= sazsemaisi
N: usul= aksaksemai = 10/8
M: 10/8
L: 1/16
K: C _1/4B ^f ^c 
Q: 1/4=120
%%MIDI tuningsystem comma53
f4 ^edcd efag fe{g}f4ed  | c4 =Bcd2 cd^e2 def4z2  | 
w:  1. HANE  |   | 
f4 a2g2 a2g2 f2=c'4ba  | a4 b2a3/2b/ agag f^ef4z2  | 
w:   |   | 
^e2f2 a2g2 f2e2 d2c4z2  | c4 d2c3/2d/ (3cBAA2 (3AB=c^c3ABG  | 
w:  TESLİM  |   | 
F4 e2de dcBd cBA4GF  | G4 F2=c2 BAAG F^EF4z2  | 
w:   |   | 
^e2f2 a2g2 f2e2 d2c4z2  | c4 d2c3/2d/ (3cBAA2 (3AB=c^c3ABG  | 
w:  TESLİM  |   | 
F4 e2de dcBd cBA4GF  | G4 F2=c2 BAAG F^EF4z2  | 
w:   |   | 
a4 g2f2 g2a2 b2a2 g2f2  | g4 f2g4a2 b2a4z2  | \
w:  2. HANE  |   | 
a2b2 =c'2b2 a2g2 b2a4gf  | 
w:   | 
g4 f2^e2 f2ga gff4z2  | ^e2f2 a2g2 f2e2 d2c4z2  | \
w:   |  TESLİM  | 
c4 d2c3/2d/ (3cBAA2 (3AB=c^c3ABG  | 
w:   | 
F4 e2de dcBd cBA4GF  | G4 F2=c2 BAAG F^EF4z2  | 
w:   |   | 
^e2f2 a2g2 f2e2 d2c4z2  | c4 d2c3/2d/ (3cBAA2 (3AB=c^c3ABG  | 
w:  TESLİM  |   | 
F4 e2de dcBd cBA4GF  | G4 F2=c2 BAAG F^EF4z2  | 
w:   |   | 
a4 g2a2 b2=c'd' c'bc'2 b2a2  | d'4 =c'bc'2 bab2 aga4z2  | 
w:  3. HANE  |   | 
a4 e'2d'3/2=f'/ e'd'=c'3/2e'/ d'c'b3/2d'/ c'ba2  | \
w:   | 
a4 gf=c'2 baag f^e{g}f4z2  | 
w:   | 
^e2f2 a2g2 f2e2 d2c4z2  | c4 d2c3/2d/ (3cBAA2 (3AB=c^c3ABG  | 
w:  TESLİM  |   | 
F4 e2de dcBd cBA4GF  | G4 F2=c2 BAAG F^EF4z2  | 
w:   |   | 
^e2f2 a2g2 f2e2 d2c4z2  | c4 d2c3/2d/ (3cBAA2 (3AB=c^c3ABG  | 
w:  TESLİM  |   | 
F4 e2de dcBd cBA4GF  | G4 F2=c2 BAAG F^EF4z2  | 
w:   |   | 
z12  | F4F2f^3/4ef2d2  | c2d2B2A2BAG2  | \
w:  |  4. HANE  |   | 
F2D2G2F6  | DEFGABcdecdB  | 
w:   |   | 
E2=F2^F2G2^G2A2  | ^GABcdegefdec  | A2^A2B2=c2^c2d2  | 
w:   |   |   | 
b2agf2a2gfe2  | g2fed2f2edc2  | defgafgefdec  | 
w:   |   |   | 
defgaba6  | b/a/b/=c'/a/b/g/a/f2a/g/a/b/g/a/f/g/e2  | 
w:   |   | 
g/f/g/a/f/g/e/f/d2f/e/f/g/e/f/d/e/c2  | \
w:   | 
ABcdegfdecdB  | 
w:   | 
ABcdecd6  | d2c2c2B2^A2=A2  | G2F2E2FGABcd  | 
w:   |   |   | 
cBAGF^EFGA=cBG  | AFG^EFGF2G2A2  | 
w:   |   | 
F4F2F6  | z20  | ^e2f2 a2g2 f2e2 d2c4z2  | \
w:   |  |  TESLİM  | 
c4 d2c3/2d/ (3cBAA2 (3AB=c^c3ABG  | 
w:   | 
F4 e2de dcBd cBA4GF  | G4 F2=c2 BAAG F^EF4z2  | 
w:   |   | 
^e2f2 a2g2 f2e2 d2c4z2  | c4 d2c3/2d/ (3cBAA2 (3AB=c^c3ABG  | 
w:  TESLİM  |   | 
F4 e2de dcBd cBA4GF  | G4 F2=c2 BAAG F^EF4z2  | 
w:   |   | 
|


